X: 2819
T: Bar Wench, The
R: waltz
M: 3/4
K: Amajor
|:GAB|"F#m"cB AG AF|"E"cec B2c|"A"AB ce fg|"D"a3 gfe|"F#m"cB AG AF|
"E"ce cB cB|"Dadd9"AD FA ce|"E"B3 (c/B/)AB|"F#m"cB AG AF|"E"cec B2c|
"A"Ac de fg|"Dma7"a3 gfe|"D"df ec BA|"A"ec BA FG|"Dma7"AD Fc "E"BA|"A"A3:|
|:efg|"F#m"ag fe cf|"F#m7"ec BA FG|"Dma7"AD FA ce|"Dadd9"f3 efg|"F#m"ag fe cf|
"C#m"ec BA FG|"Dma7"AD FA ce|"E"B3 (c/B/)AB|"F#m" cB AG AF|"E"ce cB cB|
"A"Ac de fg|"Dma7"a3 gfe|"D"df ec BA|"A"ec BA FG|"Dma7"AD Fc "E"BA|"A"A3:|

